images/logo.svg

<svg width="254" height="79" viewBox="0 0 254 79" fill="none" xmlns="http://www.w3.org/2000/svg">
<g clip-path="url(#clip0_31375_35)">
<path d="M57.2204 25.0028L46.6873 35.3822L50.7656 39.401L61.2987 29.0216L57.2204 25.0028Z" fill="#F13C6E"/>
<path d="M35.9094 46.0247L25.3762 56.4041L29.4545 60.4228L39.9877 50.0434L35.9094 46.0247Z" fill="#F13C6E"/>
<path d="M50.5173 18.4329L39.9842 28.8123L44.0625 32.8311L54.5956 22.4517L50.5173 18.4329Z" fill="#F13C6E"/>
<path d="M29.2355 39.4265L18.7023 49.8058L22.7806 53.8246L33.3138 43.4452L29.2355 39.4265Z" fill="#F13C6E"/>
<path d="M22.7576 25.0025L18.6793 29.0213L29.2124 39.4007L33.2907 35.3819L22.7576 25.0025Z" fill="#F13C6E"/>
<path d="M29.454 18.426L25.3757 22.4448L35.9089 32.8241L39.9872 28.8054L29.454 18.426Z" fill="#F13C6E"/>
<path d="M50.7592 39.3973L46.6809 43.416L57.2141 53.7954L61.2924 49.7766L50.7592 39.3973Z" fill="#F13C6E"/>
<path d="M44.092 46.0026L40.0137 50.0214L50.5468 60.4007L54.6251 56.382L44.092 46.0026Z" fill="#F13C6E"/>
<path d="M54.6058 64.4395L50.5394 60.4325L40 70.8181L29.4606 60.4325L25.3942 64.4395L40 78.8321L54.6058 64.4395Z" fill="#EFEFEF"/>
<path d="M18.6722 29.0305L14.6058 25.0234L0 39.416L14.6058 53.8086L18.6722 49.8016L8.13278 39.416L18.6722 29.0305Z" fill="#EFEFEF"/>
<path d="M65.3942 25.0234L61.3278 29.0305L71.8672 39.416L61.3278 49.8016L65.3942 53.8086L80 39.416L65.3942 25.0234Z" fill="#EFEFEF"/>
<path d="M50.5394 18.3996L54.6058 14.3926L40 0L25.3942 14.3926L29.4606 18.3996L40 8.01405L50.5394 18.3996Z" fill="#EFEFEF"/>
</g>
<path d="M102.285 53.2117V27.9916H111.25C114.355 27.9916 116.711 28.5805 118.316 29.7584C119.922 30.9247 120.725 32.6395 120.725 34.9029C120.725 36.1385 120.402 37.2297 119.758 38.1766C119.113 39.112 118.217 39.7991 117.068 40.2379C118.381 40.5612 119.412 41.2137 120.162 42.1952C120.924 43.1768 121.305 44.3777 121.305 45.7981C121.305 48.2231 120.52 50.0592 118.949 51.3063C117.379 52.5535 115.141 53.1886 112.234 53.2117H102.285ZM107.559 42.2299V49.0372H112.076C113.318 49.0372 114.285 48.7485 114.977 48.1711C115.68 47.5822 116.031 46.7739 116.031 45.7461C116.031 43.4366 114.818 42.2645 112.393 42.2299H107.559ZM107.559 38.5577H111.461C114.121 38.5115 115.451 37.4664 115.451 35.4225C115.451 34.2793 115.111 33.4594 114.432 32.9629C113.764 32.4548 112.703 32.2007 111.25 32.2007H107.559V38.5577Z" fill="#F13C6E"/>
<path d="M144.276 42.2818H134.151V49.0372H146.034V53.2117H128.877V27.9916H145.998V32.2007H134.151V38.2113H144.276V42.2818Z" fill="#F13C6E"/>
<path d="M167.177 48.0152H157.93L156.173 53.2117H150.565L160.093 27.9916H164.979L174.559 53.2117H168.952L167.177 48.0152ZM159.354 43.8061H165.753L162.536 34.3659L159.354 43.8061Z" fill="#F13C6E"/>
<path d="M199.605 27.9916V44.6029C199.605 47.3628 198.726 49.5453 196.968 51.1504C195.222 52.7556 192.831 53.5581 189.796 53.5581C186.808 53.5581 184.435 52.7787 182.677 51.2197C180.919 49.6608 180.023 47.5187 179.988 44.7934V27.9916H185.261V44.6375C185.261 46.2889 185.659 47.4956 186.456 48.2577C187.265 49.0083 188.378 49.3836 189.796 49.3836C192.761 49.3836 194.267 47.8478 194.314 44.7761V27.9916H199.605Z" fill="#F13C6E"/>
<path d="M226.795 32.2007H218.955V53.2117H213.681V32.2007H205.947V27.9916H226.795V32.2007Z" fill="#F13C6E"/>
<path d="M242.523 39.3545L247.85 27.9916H253.615L245.213 44.0659V53.2117H239.852V44.0659L231.449 27.9916H237.232L242.523 39.3545Z" fill="#F13C6E"/>
<defs>
<clipPath id="clip0_31375_35">
<rect width="80" height="78.8321" fill="white"/>
</clipPath>
</defs>
</svg>

<svg xmlns="http://www.w3.org/2000/svg" width="254" height="79" fill="none"><g clip-path="url(#a)"><path fill="#F13C6E" d="M57.22 25 46.69 35.38l4.08 4.02L61.3 29.02 57.22 25ZM35.9 46.02 25.39 56.4l4.07 4.02L40 50.04l-4.08-4.02ZM50.52 18.43 39.98 28.81l4.08 4.02L54.6 22.45l-4.08-4.02ZM29.24 39.43 18.7 49.8l4.08 4.01 10.53-10.37-4.07-4.02ZM22.76 25l-4.08 4.02L29.2 39.4l4.08-4.02L22.76 25ZM29.45 18.43l-4.07 4.01L35.9 32.82l4.08-4.01-10.54-10.38ZM50.76 39.4l-4.08 4.02L57.21 53.8l4.08-4.02L50.76 39.4ZM44.1 46 40 50.02 50.55 60.4l4.08-4.02L44.09 46Z"/><path fill="#EFEFEF" d="m54.6 64.44-4.06-4L40 70.81 29.46 60.43l-4.07 4L40 78.84l14.6-14.4ZM18.67 29.03l-4.06-4L0 39.41 14.6 53.8l4.07-4L8.13 39.4l10.54-10.38ZM65.4 25.02l-4.07 4.01 10.54 10.39L61.33 49.8l4.06 4L80 39.43l-14.6-14.4ZM50.54 18.4l4.07-4L40 0 25.4 14.4l4.06 4L40 8.01 50.54 18.4Z"/></g><path fill="#F13C6E" d="M102.28 53.21V28h8.97c3.1 0 5.46.6 7.07 1.77 1.6 1.16 2.4 2.88 2.4 5.14 0 1.24-.32 2.33-.96 3.28a5.6 5.6 0 0 1-2.7 2.06c1.32.32 2.35.97 3.1 1.96a5.7 5.7 0 0 1 1.15 3.6c0 2.42-.79 4.26-2.36 5.5-1.57 1.25-3.8 1.89-6.72 1.91h-9.95Zm5.28-10.98v6.8h4.52a4.4 4.4 0 0 0 2.9-.86 3 3 0 0 0 1.05-2.42c0-2.31-1.21-3.49-3.64-3.52h-4.83Zm0-3.67h3.9c2.66-.05 4-1.1 4-3.14 0-1.14-.35-1.96-1.03-2.46-.67-.5-1.73-.76-3.18-.76h-3.7v6.36ZM144.28 42.28h-10.13v6.76h11.88v4.17h-17.15V28H146v4.21h-11.85v6.01h10.13v4.07ZM167.18 48.02h-9.25l-1.76 5.2h-5.6l9.52-25.23h4.89l9.58 25.22h-5.6l-1.78-5.2Zm-7.83-4.21h6.4l-3.21-9.44-3.19 9.44ZM199.6 28v16.6c0 2.76-.87 4.95-2.63 6.55-1.75 1.6-4.14 2.4-7.17 2.4-3 0-5.37-.77-7.12-2.33-1.76-1.56-2.66-3.7-2.7-6.43V28h5.28v16.65c0 1.65.4 2.86 1.2 3.62.8.75 1.92 1.12 3.34 1.12 2.96 0 4.47-1.53 4.51-4.6V27.99h5.3ZM226.8 32.2h-7.84v21.01h-5.28v-21h-7.73v-4.22h20.84v4.21ZM242.52 39.35 247.85 28h5.77l-8.4 16.08v9.14h-5.37v-9.14l-8.4-16.08h5.78l5.3 11.36Z"/><defs><clipPath id="a"><path fill="#fff" d="M0 0h80v78.83H0z"/></clipPath></defs></svg>
